X:4061
T:DEROBEE DE MAROUE
Z: Yves BELOTTEAU
M:6/8
L:1/8
Q:1/4=60
K:G
|Bc/2BA/2 GB/2AA/2|Bc/2BA/2 GB/2A3/2|Bc/2BA/2 GB/2AA/2|Bc/2BA/2 GB/2A3/2
|
G/2A/2B/2GG/2 G/2A/2B/2AA/2|A/2B/2c/2dd/2 c/2B/2A/2BG/2|G/2A/2B/2GG/2 G/
2A/2B/2AA/2|A/2B/2c/2dd/2 c/2B/2A/2BG/2|
G3/2|
